X: 23518
T: Liberty
R: reel
M: 4/4
K: Dmajor
f2A2 f2A2|fgfe d2ef|g2B2 g2B2|gagf efge|
f2A2 f2A2|fgfe d2ef|gfed cABc|1 dBAF D2de:|2 dBAF D2FG||
|:A2AB AGFE|DFAd f2d2|A2AB AFED|A,2C2 E2G2|
A2AB AGFE|DFAd fdef|gfed cABc|1 dBAF D2FG:|2 dBAF D2de||

